!!!COM:	Josquin des Prez
!!!CDT:	~1450-1521/08/27
!!!OPR:	Missa Ave maris stella
!!!ONM:	5
!!!OTL:	Agnus Dei
!!!AGN:	Mass; Agnus Dei
!!!SCT:	NJE 3.1
!!!SCA:	New Josquin Edition 3.1
!!!voices: 4
!!!voices-OPR:	4
**kern	**kern	**kern	**kern
*staff4	*staff3	*staff2	*staff1
*I"Bassus	*I"Tenor	*I"Altus	*I"Superius
*I'B	*I'T	*I'A	*I'S
*>[A,B,C]	*>[A,B,C]	*>[A,B,C]	*>[A,B,C]
*>Agnus1[A]	*>Agnus1[A]	*>Agnus1[A]	*>Agnus1[A]
*>Agnus2[B]	*>Agnus2[B]	*>Agnus2[B]	*>Agnus2[B]
*>Agnus3[C]	*>Agnus3[C]	*>Agnus3[C]	*>Agnus3[C]
*>A	*>A	*>A	*>A
*clefF4	*clefGv2	*clefGv2	*clefG2
*k[b-]	*k[b-]	*k[b-]	*k[b-]
*M3/1	*M3/1	*M3/1	*M3/1
*met(O)	*met(O)	*met(O)	*met(O)
=1-	=1-	=1-	=1-
!!section: Agnus Dei I
!!!OMD: Agnus Dei I
0.r	0.r	1G	0.r
.	.	1.d	.
.	.	4c\	.
.	.	4d\	.
=2	=2	=2	=2
0.r	0.r	1e	1g
.	.	2d\	1.dd
.	.	1f	.
.	.	4e\	4cc\
.	.	4d\	4dd\
=3	=3	=3	=3
0.r	0.r	2.c\	1ee
.	.	4A/	.
.	.	4B-\	2dd\
.	.	4c\	.
.	.	1d	1ff
.	.	4c\	4ee\
.	.	4B-\	4dd\
=4	=4	=4	=4
0.r	0.r	2.A/	2.cc\
.	.	4F/	4a/
.	.	4G/	4b-\
.	.	4A/	4cc\
.	.	1B-	1dd
.	.	4A/	4cc\
.	.	4G/	4b-\
=5	=5	=5	=5
0.r	0.r	2F/	2.a/
.	.	2f\	.
.	.	.	4f/
.	.	2e\	4g/
.	.	.	4a/
.	.	1d	1b-
.	.	2c\	4a/
.	.	.	4g/
=6	=6	=6	=6
1D	0.r	2d\	2f/
.	.	2f\	1a
1.A	.	2e\	.
.	.	1d	4g/
.	.	.	4f/
.	.	.	1e
4G\	.	2c#i\	.
4A\	.	.	.
=7	=7	=7	=7
1B-	1G	2d\	2d/
.	.	2G/	2.dd\
2r	1.d	2.B-\	.
.	.	.	4cc\
2G\	.	.	2b-\
.	.	4A/	.
2A\	.	2F/	2a/
2B-\	4c\	2G/	[2g/
.	4d\	.	.
=8	=8	=8	=8
1c	1e	2E/	2g/]
.	.	1.A	2.cc\
2r	2r	.	.
.	.	.	4a/
2A\	2c\	.	2cc\
2B-\	2d\	2G/	4b-\
.	.	.	4a/
2c\	2e\	2E/	2g/
=9	=9	=9	=9
1d	1f	4D/	4f/
.	.	4E/	4g/
.	.	4F/	4a/
.	.	4G/	4b-\
2c\	2r	2A/	2cc\
2B-\	2d\	2B-\	2f/
1A	2e\	2.c\	2r
.	2f\	.	2cc\
.	.	4d\	.
=10	=10	=10	=10
1G	1g	2e\	2.b-\
.	.	1d	.
.	.	.	8a/L
.	.	.	8g/J
1r	2f\	.	2a/
.	2e\	2c\	2cc\
1r	1d	2.f\	2dd\
.	.	.	[2ff\
.	.	4g\	.
=11	=11	=11	=11
0A	1c	4a\	4ff\]
.	.	4g\	4ee\
.	.	1a	2.ee\
.	1r	.	.
.	.	.	4dd\
.	.	2f\	1dd
1A	1r	1e	.
.	.	.	2cc#i\
=12	=12	=12	=12
2.D\	0d	1d	2dd\
.	.	.	2a/
4E\	.	.	.
2G\	.	1r	2b-\
1F	.	.	2.a/
.	1d	1f	.
.	.	.	4f/
2D\	.	.	2a/
=13	=13	=13	=13
2E\	2.G/	2.g\	2g/
1C	.	.	1e
.	4A/	4f\	.
.	2c\	4e\	.
.	.	4d\	.
2D\	1B-	1d	2f/
1E	.	.	2.g/
.	2G/	2c\	.
.	.	.	4e/
=14	=14	=14	=14
1D	2A/	4d\	4f/
.	.	4e\	4g/
.	1F	4f\	1a
.	.	4g\	.
1r	.	2a\	.
.	2G/	1g	2b-\
1r	1A	.	2.cc\
.	.	2f#i\	.
.	.	.	4dd\
=15	=15	=15	=15
1G	1G	1.g	2ee-i\
.	.	.	2dd\
2E\	1r	.	2g/
2F\	.	4f\	1cc
.	.	4e\	.
1G	1r	1d	.
.	.	.	2bni\
=16	=16	=16	=16
1A	1c	3%2cV	1cc
.	.	3A/Z	.
2F\	2A/	3%2aV	1r
2G\	2B-\	.	.
.	.	3g\Z	.
1A	1c	3f\V	2r
.	.	3%2eZ	.
.	.	.	2ee\
=17	=17	=17	=17
2D\	1d	1d	2ff\
2.G\	.	.	1dd
.	2B-\	2r	.
4F\	.	.	.
2E\	2c\	2G/	2gg\
1D	1d	2A/	2ff\
.	.	2B-\	2dd\
=18	=18	=18	=18
1C	2G/	2.c\	4ee\
.	.	.	2cc\
.	2.c\	.	.
.	.	4d\	4b-\
2r	.	2e\	2g/
.	4B-\	.	.
2F\	2A/	2f\	2a/
2G\	1G	2d\	2b-\
2E\	.	2e\	2g/
=19	=19	=19	=19
2F\	1F	2c\	2.a/
2D\	.	1f	.
.	.	.	4g/
2F\	2r	.	2a/
2G\	2B-\	2d\	2b-\
2E\	2c\	2e\	2g/
2F\	2A/	2c\	2a/
=20	=20	=20	=20
2.G\	2B-\	2r	2r
.	2G/	1d	1b-
4F\	.	.	.
2G\	2B-\	.	.
2E\	2c\	2e\	2g/
2F\	2A/	2c\	2a/
2G\	2B-\	2g\	2dd\
=21	=21	=21	=21
2.A\	2.c\	2e\	2cc\
.	.	2f\	2.a/
4G\	4B-\	.	.
2A\	2c\	1c	.
.	.	.	4b-\
2F\	2A/	.	2.cc\
1E	2B-\	1g	.
.	.	.	4b-\
.	2c\	.	2g/
=22	=22	=22	=22
0.D	2.d\	2.f\	2b-\
.	.	.	2.a/
.	4c\	4e\	.
.	2f\	2f\	.
.	.	.	4g/
.	2B-\	2.d\	1g
.	1A	.	.
.	.	4c\	.
.	.	2d\	2f#i/
=23	=23	=23	=23
0.Gl	0.Gl	0.B-l	0.gl
!!LO:PB:i:g=z
=24||	=24||	=24||	=24||
*>B	*>B	*>B	*>B
!!section: Agnus Dei II
!!!OMD: Agnus Dei II
*clefF4	*clefGv2	*clefGv2	*clefG2
*k[b-]	*k[b-]	*k[b-]	*k[b-]
*M2/1	*M2/1	*M2/1	*M2/1
*met(C|)	*met(C|)	*met(C|)	*met(C|)
0r	0r	0g	0r
=25	=25	=25	=25
0r	0r	1a	0cc
.	.	1a	.
=26	=26	=26	=26
0r	0r	2.g\	1dd
.	.	4f\	.
.	.	2g\	1dd
.	.	2d\	.
=27	=27	=27	=27
0r	0r	2.f\	2.cc\
.	.	4g\	4b-\
.	.	1e	2cc\
.	.	.	2g/
=28	=28	=28	=28
0r	0r	1d	2.b-\
.	.	.	4cc\
.	.	2r	1a
.	.	2d\	.
=29	=29	=29	=29
0r	0r	1e	1g
.	.	1e	2r
.	.	.	2g/
=30	=30	=30	=30
0r	0r	2.d\	1a
.	.	4c\	.
.	.	2d\	1a
.	.	2A/	.
=31	=31	=31	=31
0r	0r	2.c\	2.g/
.	.	4d\	4f/
.	.	1B-	2g/
.	.	.	2d/
=32	=32	=32	=32
0r	0r	0A	2.f/
.	.	.	4g/
.	.	.	1e
=33	=33	=33	=33
0r	0r	1r	0d
.	.	1f	.
=34	=34	=34	=34
0r	0r	1g	1r
.	.	1g	1b-
=35	=35	=35	=35
0r	0r	2.a\	1cc
.	.	4g\	.
.	.	2f\	1cc
.	.	2e\	.
=36	=36	=36	=36
0r	0r	1d	2.dd\
.	.	.	4cc\
.	.	2r	2b-\
.	.	2d\	2a/
=37	=37	=37	=37
0r	0r	2e\	1g
.	.	2.g\	.
.	.	.	2r
.	.	4f\	.
.	.	4g\	2g/
.	.	4e\	.
=38	=38	=38	=38
0r	0r	2f\	2a/
.	.	2e\	2.cc\
.	.	1c	.
.	.	.	4b-\
.	.	.	4cc\
.	.	.	4a/
=39	=39	=39	=39
0r	0r	2r	2b-\
.	.	2c\	2a/
.	.	2d\	1f
.	.	[2f\	.
=40	=40	=40	=40
0r	0r	4f\]	2r
.	.	4e\	.
.	.	4f\	2f/
.	.	4d\	.
.	.	2e\	2g/
.	.	2d\	[2b-\
=41	=41	=41	=41
0r	0r	2.g\	4b-\]
.	.	.	4a/
.	.	.	4b-\
.	.	4e\	4g/
.	.	4f\	2a/
.	.	4g\	.
.	.	2e\	2g/
=42	=42	=42	=42
0r	0r	2.a\	2.cc\
.	.	4f\	4a/
.	.	4g\	4b-\
.	.	4a\	4cc\
.	.	[2f\	2a/
=43	=43	=43	=43
0r	0r	4f\]	2.dd\
.	.	4e\	.
.	.	4f\	.
.	.	4d\	4b-\
.	.	4e\	4cc\
.	.	4f\	4dd\
.	.	[2g\	[2b-\
=44	=44	=44	=44
0r	0r	4g\]	4b-\]
.	.	4f\	4a/
.	.	4g\	4b-\
.	.	4e\	4g/
.	.	2d\	4a/
.	.	.	4b-\
.	.	2c\	[2cc\
=45	=45	=45	=45
0r	0r	1f	4cc\]
.	.	.	4b-\
.	.	.	4cc\
.	.	.	4a/
.	.	2r	2g/
.	.	[2d\	2f/
=46	=46	=46	=46
0r	0r	4d\]	1b-
.	.	4e\	.
.	.	2g\	.
.	.	2f\	2r
.	.	2g\	[2g/
=47	=47	=47	=47
0r	0r	1e	4g/]
.	.	.	4a/
.	.	.	2cc\
.	.	2r	2b-\
.	.	[2c\	2cc\
=48	=48	=48	=48
0r	0r	4c\]	1a
.	.	4d\	.
.	.	2f\	.
.	.	2e\	2r
.	.	2f\	[2f/
=49	=49	=49	=49
0r	0r	1d	4f/]
.	.	.	4g/
.	.	.	2b-\
.	.	2r	2a/
.	.	2d\	2b-\
=50	=50	=50	=50
0r	0r	2.e\	1g
.	.	4d\	.
.	.	4e\	2r
.	.	4f\	.
.	.	4g\	2g/
.	.	4e\	.
=51	=51	=51	=51
0r	0r	2f\	2.a/
.	.	4d\	.
.	.	4e\	4g/
.	.	4f\	4a/
.	.	4d\	4b-\
.	.	4e\	4cc\
.	.	4f\	4a/
=52	=52	=52	=52
0r	0r	2.g\	2b-\
.	.	.	4g/
.	.	4f\	4a/
.	.	4g\	4b-\
.	.	4e\	4g/
.	.	4f\	4a/
.	.	4g\	4b-\
=53	=53	=53	=53
0r	0r	3.a\V	2.cc\
.	.	6g\	.
.	.	3a\Z	.
.	.	.	4b-\
.	.	3f\V	4cc\
.	.	.	4a/
.	.	3%2eZ	.
.	.	.	4b-\
.	.	.	4cc\
=54	=54	=54	=54
0r	0r	3.d\V	3.dd\
.	.	6e\	6cc\
.	.	3f\Z	3dd\
.	.	3g\V	3b-\
.	.	3a\	3%2a
.	.	3f#i\Z	.
=55	=55	=55	=55
0r	0r	0gl	0gl
!!LO:PB:i:g=z
=56||	=56||	=56||	=56||
*>C	*>C	*>C	*>C
!!section: Agnus Dei III
!!!OMD: Agnus Dei III
*clefF4	*clefGv2	*clefGv2	*clefG2
*k[b-]	*k[b-]	*k[b-]	*k[b-]
*M2/1	*M2/1	*M2/1	*M2/1
*met(C|)	*met(C|)	*met(C|)	*met(C|)
1G	0r	0r	0r
[1d	.	.	.
=57	=57	=57	=57
2d\]	0r	1r	0r
4c\	.	.	.
4d\	.	.	.
2e-i\	.	1G	.
[2d\	.	.	.
=58	=58	=58	=58
4d\]	0r	1.d	0r
4c\	.	.	.
4B-\	.	.	.
4A\	.	.	.
1G	.	.	.
.	.	4c\	.
.	.	4d\	.
=59	=59	=59	=59
0r	1G	2e-i\	0r
.	.	2.d\	.
.	[1d	.	.
.	.	4c\	.
.	.	4B-\	.
.	.	4A/	.
=60	=60	=60	=60
1r	2d\]	1G	1r
.	4c\	.	.
.	4d\	.	.
1c	1e	1r	1g
=61	=61	=61	=61
2.B-\	2d\	0r	1.dd
.	1f	.	.
4A\	.	.	.
2B-\	.	.	.
2c\	4e\	.	4cc\
.	4d\	.	4dd\
=62	=62	=62	=62
1A	1c	2r	1ee
.	.	2c\	.
1r	[1d	2.B-\	2dd\
.	.	.	[2ff\
.	.	4A/	.
=63	=63	=63	=63
1r	2d\]	2B-\	2ff\]
.	2e\	2c\	4ee\
.	.	.	4dd\
2r	[1f	2.A/	1cc
[2F\	.	.	.
.	.	4G/	.
=64	=64	=64	=64
2F\]	2f\]	2A/	1.dd
1G	2d\	2B-\	.
.	1g	1G	.
2E\	.	.	2ee\
=65	=65	=65	=65
1D	2f\	1.d	1.ff
.	2d\	.	.
1r	2f\	.	.
.	2g\	2B-\	2dd\
=66	=66	=66	=66
1C	1e	3c\V	1gg
.	.	3G/	.
.	.	3c\Z	.
2D\	1d	3A/V	2ff\
.	.	3.f\	.
2BB-/	.	.	2dd\
.	.	6e\Z	.
=67	=67	=67	=67
2D\	0r	6d\V	2ff\
.	.	6c\	.
.	.	3.B-\	.
2E-i\	.	.	2gg\
.	.	6A/Z	.
1C	.	3c\V	1ee
.	.	3G/	.
.	.	3c\Z	.
=68	=68	=68	=68
2BB-/	1d	1.B-	1dd
2B-\	.	.	.
2G\	1d	.	1r
[2B-\	.	2G/	.
=69	=69	=69	=69
4B-\]	1.G	2.B-\	1r
4A\	.	.	.
1G	.	.	.
.	.	4c\	.
.	.	4d\	1dd
.	.	4e\	.
4F\	2A/	[2f\	.
4E\	.	.	.
=70	=70	=70	=70
1D	1B-	2f\]	1dd
.	.	2d\	.
1C	2.c\	2e\	[1g
.	.	[2c\	.
.	4d\	.	.
=71	=71	=71	=71
1r	2e-i\	2c\]	2g/]
.	1d	2.f\	2a/
2r	.	.	1b-
.	.	4d\	.
2G\	4c\	2e\	.
.	4B-\	.	.
=72	=72	=72	=72
2A\	1A	1c	2.cc\
2F\	.	.	.
.	.	.	4dd\
2G\	1G	2r	2ee-i\
[2B-\	.	2g\	[2dd\
=73	=73	=73	=73
2B-\]	1r	2d\	2dd\]
4A\	.	2e\	4cc\
4G\	.	.	4b-\
2.F\	1c	2.f\	1a
4E\	.	4g\	.
=74	=74	=74	=74
1C	1c	2.e\	1g
.	.	4c\	.
[1F	[1A	2c\	1r
.	.	[2a\	.
=75	=75	=75	=75
2F\]	2A/]	2a\]	1cc
2G\	2B-\	4g\	.
.	.	4f\	.
1A	1c	1e	1cc
=76	=76	=76	=76
1D	1d	2.f\	1.a
.	.	4d\	.
2r	2c\	4e\	.
.	.	4f\	.
2G\	2B-\	2g\	2b-\
=77	=77	=77	=77
2A\	1A	2c\	1cc
2F\	.	2f\	.
1B-	1G	2r	1dd
.	.	2B-\	.
=78	=78	=78	=78
2A\	2r	2c\	2cc\
2G\	2G/	2.d\	2b-\
2.F\	2A/	.	1a
.	.	4e\	.
.	[2c\	4f\	.
4E\	.	4g\	.
=79	=79	=79	=79
0C	2c\]	4e\	1g
.	.	4c\	.
.	4B-\	2.f\	.
.	4A/	.	.
.	1G	.	2r
.	.	4e\	.
.	.	4e\	2g/
.	.	4d\	.
=80	=80	=80	=80
2r	1F	2f\	2a/
2A\	.	2.c\	1cc
2F\	1r	.	.
.	.	4A/	.
2D\	.	2d\	4b-\
.	.	.	4a/
=81	=81	=81	=81
2.E-i\	1r	2B-\	1g
.	.	2c\	.
4D\	.	.	.
1BB-	2.B-\	2d\	1f
.	.	[2f\	.
.	4c\	.	.
=82	=82	=82	=82
2r	2d\	4f\]	0r
.	.	4g\	.
2F\	1c	2.a\	.
2F\	.	.	.
.	.	4g\	.
2F\	2A/	4f\	.
.	.	4e\	.
=83	=83	=83	=83
1G	2B-\	1d	2.b-\
.	2G/	.	.
.	.	.	4cc\
2r	2B-\	2r	2dd\
2F\	2c\	2f\	[2cc\
=84	=84	=84	=84
2F\	1A	2f\	2cc\]
2F\	.	2f\	2a/
1G	1G	4d\	2b-\
.	.	4c\	.
.	.	4B-\	2g/
.	.	4A/	.
=85	=85	=85	=85
2r	2r	2G/	2b-\
2F\	1c	2A/	2cc\
2F\	.	2r	1a
2F\	2A/	2f\	.
=86	=86	=86	=86
2G\	2B-\	2d\	1g
2C/	2.c\	2e\	.
2.F\	.	2c\	2r
.	4B-\	.	.
.	4A/	2f\	[2cc\
4G\	4G/	.	.
=87	=87	=87	=87
2A\	4F/	2e\	2cc\]
.	4G/	.	.
2D\	4A/	2f\	2a/
.	4F/	.	.
2G\	1G	2d\	2b-\
2C/	.	2e\	[2cc\
=88	=88	=88	=88
2.F\	0A	1c	4cc\]
.	.	.	4b-\
.	.	.	4a/
4E\	.	.	4g/
1D	.	1d	4f#i/
.	.	.	4g/
.	.	.	4a/
.	.	.	4f#i/
=89	=89	=89	=89
2r	[0Gl	2r	[0gl
2G\	.	2d\	.
2E-i\	.	1e-	.
2C/	.	.	.
=90	=90	=90	=90
1G	0G_	1d	0g_
1C	.	1e-i	.
=91	=91	=91	=91
0Gl	0G]	0dl	0g]
==	==	==	==
*-	*-	*-	*-
!!!RDF**kern: %=rational rhythm
!!!rscale-alt: 1/2
!!!RDF**kern: V=start of tuplet marker
!!!RDF**kern: Z=end of tuplet marker
!!!RDF**kern: l=long note in original notation
!!!RDF**kern: i=editorial accidental
!!!ENC: Jesse Rodin; Victoria Chang 2011/04/01/
!!!END: 2011/04/01/
!!!EED:	Jesse Rodin
!!!EEV: 2013/10/25/
!!attribution-level@Jos: 1 (secure)
!!!ONB:	Translated from MusicXML and edited on 2011/04/06/ by Craig Sapp
!!muse2ps: T^@{OPR}^u^@{ONM}{. }@{OTL}^C^@{COM}\n@{SCT}^i2I100v85,90,85,150c94Q16
